X: 1
T: RUM AND ONIONS -- JIG
B: Ryan's Mammoth Collection of Fiddle Tunes
R: JIG
M: 6/8
L: 1/8
Z: Contributed 20000422015244 by John Chambers jc:ecf-guest.mit.edu
K: G
  {Bc}dGG GFG | Bcd dBG | {vAB}cAA FG"4"A | "0"ABc cBA |
| {vBc}dGG GFG | Bcd dBG |[M:2/4] .vA2.vA.uA .A.d.c.A | .G2.B2.G2z2 :|
M: 6/8
  {vef}gee e^de | bee efg | {vde}fdd d^cd | add def |
| {vef}gee e^de | bee efg |[M:2/4] vf2vfuf feeg | e2g2e2z2 :|
